!!!OTL: ZERDRUECK DIE THRAENE NICHT IN DEINEM AUGE
!!!ARE: Europa, Mitteleuropa, Deutschland, Nassau, Rheinland; Elsass
!!!SCT: B0471
!!!YEM: Copyright 1995, estate of Helmut Schaffrath.
**kern
*ICvox
*Ivox
*M4/4
*k[b-]
*F:
{8c
8f
8g
=1
4.a
8a
8a
8cc
8b-
8a
=2
4cc
4g
8r}
{8b-
8a
8g
=3
4.f
8f
8e
8c
8d
8e
=4
2f
8r}
{8c
8f
8g
=5
4.a
8a
8a
8cc
8b-
8a
=6
4cc
4g
8r}
{8b-
8a
8g
=7
4.f
8f
8e
8c
8d
8e
=8
2f
8r}
{8g
8g
8g
=9
4.a
8a
8g
8g
8f
8d
=10
4c
8e
8g
8cc}
{8g
8e
8cc
=11
4.bn
8a
8g
8g
8f
8d
=12
2c
8r}
{8c
8f
8g
=13
4.a
8a
8a
8cc
8b-
8a
=14
4cc
4g
8r}
{8b-
8a
8g
=15
4.f
8f
8e
8c
8d
8e
=16
2f
8r}
==
!!!AGN: Liebes - Lied, Leid, Klage
!!!ONB: ESAC (Essen Associative Code) Database: BOEHME
!!!AMT: simple quadruple
!!!AIN: vox
!!!EED: Helmut Schaffrath
!!!EEV: 1.0
*-
